app/assets/weg-over-sluisdeur.svg

<svg data-name="Layer 1" xmlns="http://www.w3.org/2000/svg" width="120" height="480" viewBox="0 0 120 480">
    <title>
        weg-over-sluisdeur
    </title>
    <path d="M39 242v166h42V242zm19 23h4v24h-4zm0 48h4v24h-4zm0 48h4v24h-4zM39 72v165h42V72zm19 22.5h4v24h-4zm0 48h4v24h-4zm0 48h4v24h-4z" opacity=".5" style="isolation:isolate"/>
    <path d="M58 214.5h4v-24h-4zm0-48h4v-24h-4zm0-48h4v-24h-4zM58 385h4v-24h-4zm0-48h4v-24h-4zm0-48h4v-24h-4z" fill="#fff" opacity=".5" style="isolation:isolate"/>
</svg>

<svg id="5e454314-348a-4783-9308-99354d5b5b3c" data-name="Layer 1" xmlns="http://www.w3.org/2000/svg" width="120" height="480" viewBox="0 0 120 480">
  <title>weg-over-sluisdeur</title>
  <g id="fb00adab-9e43-4a6d-b13a-03c066c3008a" data-name="overlay">
    <path d="M39,242V408H81V242Zm19,23h4v24H58Zm0,48h4v24H58Zm0,48h4v24H58ZM39,72V237H81V72ZM58,94.5h4v24H58Zm0,48h4v24H58Zm0,48h4v24H58Z" opacity="0.5" style="isolation: isolate"/>
    <path d="M58,214.5h4v-24H58Zm0-48h4v-24H58Zm0-48h4v-24H58ZM58,385h4V361H58Zm0-48h4V313H58Zm0-48h4V265H58Z" fill="#fff" opacity="0.5" style="isolation: isolate"/>
  </g>
</svg>
